src/assets/bold/lm-text-a-strikethrough-bold.svg

<svg width="24" height="24" viewBox="0 0 24 24" fill="none" xmlns="http://www.w3.org/2000/svg" fill="currentColor">
<path d="M8.83301 13.6055H15.166L14.9033 13H16.623L18.9258 18.2988C18.9692 18.3987 18.9941 18.5069 18.999 18.6172C19.0039 18.7276 18.9886 18.8384 18.9541 18.9424C18.9195 19.0464 18.8666 19.1428 18.7979 19.2246C18.7292 19.3063 18.646 19.3728 18.5537 19.4199C18.4614 19.467 18.3607 19.4938 18.2588 19.499C18.1568 19.5042 18.0541 19.4876 17.958 19.4502C17.8622 19.4128 17.7736 19.3554 17.6982 19.2812C17.6227 19.2069 17.5611 19.1166 17.5176 19.0166L15.8984 15.2891H8.10156L6.48145 19.0166C6.43795 19.1166 6.37727 19.2069 6.30176 19.2812C6.22619 19.3556 6.13712 19.4128 6.04102 19.4502C5.94503 19.4875 5.84309 19.5042 5.74121 19.499C5.63925 19.4937 5.53863 19.467 5.44629 19.4199C5.35397 19.3729 5.27083 19.3063 5.20215 19.2246C5.13344 19.1428 5.08046 19.0464 5.0459 18.9424C5.01137 18.8384 4.99611 18.7276 5.00098 18.6172C5.00589 18.5069 5.03075 18.3987 5.07422 18.2988L7.37695 13H9.09668L8.83301 13.6055Z" fill="black"/>
<path d="M20.25 10.5C20.4489 10.5 20.6396 10.5791 20.7803 10.7197C20.9209 10.8604 21 11.0511 21 11.25C21 11.4489 20.9209 11.6396 20.7803 11.7803C20.6396 11.9209 20.4489 12 20.25 12H3.75C3.55109 12 3.36038 11.9209 3.21973 11.7803C3.07907 11.6396 3 11.4489 3 11.25C3 11.0511 3.07907 10.8604 3.21973 10.7197C3.36038 10.5791 3.55109 10.5 3.75 10.5H20.25Z" fill="black"/>
<path d="M12 3.5C12.1475 3.50004 12.2924 3.54528 12.417 3.63086C12.5415 3.71648 12.6413 3.83889 12.7041 3.9834L15.1016 9.5H13.3818L12 6.32031L10.6182 9.5H8.89844L11.2959 3.9834C11.3587 3.83894 11.4585 3.71646 11.583 3.63086C11.7075 3.54531 11.8525 3.50004 12 3.5Z" fill="black"/>
</svg>

<svg xmlns="http://www.w3.org/2000/svg" width="24" height="24" fill="currentColor" viewBox="0 0 24 24">
  <path d="M8.833 13.605h6.333L14.903 13h1.72l2.303 5.299a.9.9 0 0 1-.128.926.788.788 0 0 1-.244.195.731.731 0 0 1-.856-.139.844.844 0 0 1-.18-.264l-1.62-3.728H8.102l-1.62 3.728a.841.841 0 0 1-.18.264.77.77 0 0 1-.261.17.725.725 0 0 1-.595-.031.786.786 0 0 1-.244-.195.861.861 0 0 1-.156-.283.908.908 0 0 1 .028-.643L7.377 13h1.72l-.264.605ZM20.25 10.5a.75.75 0 0 1 0 1.5H3.75a.75.75 0 0 1 0-1.5h16.5ZM12 3.5a.74.74 0 0 1 .417.13.826.826 0 0 1 .287.353L15.102 9.5h-1.72L12 6.32 10.618 9.5h-1.72l2.398-5.517a.826.826 0 0 1 .287-.352A.736.736 0 0 1 12 3.5Z"/>
</svg>
